lib/preview/nrk-logo-preview-nrk-p2-title-below-on-light.svg

<svg width="35" height="31" viewBox="0 0 35 31" fill="none" xmlns="http://www.w3.org/2000/svg">
<path d="M0 13.0006V1.0017H3.93719V13.0006H0ZM9.29381 2.91139L11.5581 13.0006H7.24917L4.54549 1.0017H6.96218C7.51635 0.994508 8.05406 1.18986 8.4745 1.551C8.89562 1.89699 9.18495 2.37731 9.29381 2.91139ZM12.1495 13.0006V1.0017H16.0867V13.0006H12.1495ZM19.0605 5.56471C18.6362 5.56885 18.2188 5.45784 17.8525 5.24358C17.4912 5.03473 17.1911 4.73457 16.9823 4.37321C16.7678 4.00694 16.6568 3.58937 16.661 3.16493C16.6561 2.74307 16.7672 2.32799 16.9823 1.96504C17.1933 1.6076 17.4931 1.3107 17.8525 1.10313C18.2189 0.889113 18.6362 0.778125 19.0605 0.781994C19.4822 0.777452 19.8971 0.888539 20.2602 1.10313C20.616 1.31252 20.9127 1.60917 21.122 1.96504C21.3368 2.32809 21.4479 2.7431 21.4433 3.16493C21.4473 3.58934 21.3363 4.00684 21.122 4.37321C20.9149 4.73299 20.6179 5.03289 20.2602 5.24358C19.8971 5.45859 19.4819 5.5697 19.0599 5.56471H19.0605ZM22.0516 13.0006V1.0017H25.9892V13.0006H22.0516ZM30.9737 7.55884C30.9848 7.57049 31.0693 7.70849 31.2272 7.97288C31.3851 8.23727 31.5906 8.57529 31.8439 8.9869C32.0974 9.39832 32.3649 9.83487 32.6463 10.2966C32.9278 10.7584 33.1926 11.195 33.4408 11.6064C33.6881 12.0178 33.9697 12.4825 34.2857 13.0006H29.9598C29.6893 12.5612 29.4441 12.1641 29.2245 11.8092C29.0048 11.4543 28.7713 11.0712 28.5238 10.66C28.2758 10.2491 28.0306 9.84915 27.7882 9.46008C27.5458 9.071 27.3375 8.73022 27.1633 8.43767C26.9883 8.14493 26.8671 7.94773 26.7997 7.84615C26.6325 7.59405 26.5336 7.30291 26.5127 7.00115C26.5294 6.71155 26.6226 6.43159 26.7828 6.18972C26.8504 6.07706 26.9743 5.87704 27.1545 5.58974C27.3348 5.30244 27.546 4.96166 27.7882 4.56733C28.0304 4.173 28.2756 3.77021 28.5238 3.35899C28.772 2.94776 29.0056 2.56185 29.2245 2.20132C29.4445 1.84116 29.6897 1.4412 29.9598 1.00143H34.2857L30.9396 6.46011C30.8361 6.62218 30.7777 6.80896 30.7706 7.00115C30.7818 7.20293 30.8522 7.39693 30.9731 7.55884H30.9737Z" fill="#0A2343"/>
<path d="M8.16013 19.6982C7.95222 19.3775 7.68503 19.0992 7.37286 18.8782C7.02513 18.6352 6.63894 18.4523 6.23039 18.3374C5.7343 18.2007 5.22119 18.1353 4.70662 18.1433H0V30.1432H1.7777V25.8334H4.84233C5.53388 25.8438 6.21632 25.6749 6.82291 25.3432C7.40428 25.0217 7.88708 24.5484 8.21965 23.974C8.57622 23.3401 8.75465 22.6218 8.73605 21.8951C8.73752 21.5024 8.69214 21.1109 8.60089 20.7289C8.51278 20.3631 8.36379 20.0147 8.16013 19.6982ZM6.58558 23.3404C6.35828 23.6969 6.02344 23.9721 5.62933 24.1264C5.15098 24.3071 4.64198 24.3932 4.1307 24.3799H1.77742V19.6137H4.36802C4.86278 19.5951 5.35521 19.6904 5.80713 19.8923C6.16654 20.0657 6.46034 20.3502 6.6449 20.7036C6.84063 21.0999 6.9366 21.5379 6.92452 21.9796C6.94401 22.4562 6.82637 22.9284 6.58558 23.3404Z" fill="#AB0058"/>
<path d="M12.1844 28.6894C12.4525 28.4602 12.7279 28.2213 13.0191 27.9627C13.4254 27.6023 13.8346 27.2108 14.2466 26.788C14.6586 26.3653 15.0508 25.926 15.4232 25.47C15.7851 25.0287 16.1161 24.5629 16.4137 24.076C16.6917 23.6234 16.9188 23.1416 17.0908 22.6393C17.2506 22.177 17.3336 21.6917 17.3364 21.2027C17.3444 20.7461 17.252 20.2933 17.0655 19.8762C16.8807 19.4823 16.6086 19.1356 16.2697 18.8622C15.882 18.5554 15.4355 18.331 14.9577 18.2027C14.3704 18.0425 13.7633 17.9657 13.1545 17.9746C12.7601 17.9735 12.3664 18.0075 11.9779 18.076C11.6084 18.1413 11.2457 18.2404 10.8943 18.372C10.5593 18.4972 10.2339 18.6468 9.92086 18.8196L10.141 20.29C10.4091 20.1106 10.6957 19.9604 10.996 19.8422C11.3221 19.7113 11.6592 19.6095 12.0033 19.5379C12.3541 19.4647 12.7115 19.428 13.0699 19.4284C13.4452 19.4207 13.8195 19.4719 14.1789 19.5802C14.4652 19.6677 14.7283 19.8178 14.9492 20.0196C15.1481 20.2049 15.3015 20.4333 15.3978 20.6872C15.4963 20.9551 15.545 21.2386 15.5417 21.5238C15.536 22.0027 15.4384 22.4761 15.254 22.9182C15.0397 23.4374 14.767 23.9308 14.4413 24.3886C14.062 24.9267 13.6492 25.4403 13.2054 25.9266C12.7313 26.4506 12.215 26.9745 11.6563 27.4985C11.0976 28.0224 10.5191 28.5548 9.92086 29.0956L10.141 30.1435H17.4718L17.675 28.6897L12.1844 28.6894Z" fill="#AB0058"/>
</svg>

<svg xmlns="http://www.w3.org/2000/svg" viewBox="0 0 35 31"><path fill="#0A2343" d="M0 13V1.003h3.937V13H0ZM9.294 2.912l2.264 10.09H7.25L4.545 1h2.417a2.276 2.276 0 0 1 1.513.55c.42.346.71.826.819 1.36Zm2.855 10.09V1h3.938v12h-3.938Zm6.912-7.436a2.382 2.382 0 0 1-2.4-2.4 2.301 2.301 0 0 1 .321-1.2 2.41 2.41 0 0 1 3.278-.862c.356.21.653.506.862.862.215.363.326.778.321 1.2a2.35 2.35 0 0 1-.321 1.208 2.4 2.4 0 0 1-.862.87 2.302 2.302 0 0 1-1.2.322ZM22.05 13V1h3.938v12h-3.937Zm8.923-5.442c.01.011.095.15.253.414s.364.602.617 1.014a315.274 315.274 0 0 1 1.597 2.62c.247.41.529.876.845 1.394H29.96c-.27-.44-.516-.837-.736-1.192-.22-.355-.453-.738-.7-1.149-.248-.41-.493-.81-.736-1.2-.242-.389-.45-.73-.625-1.022a17.98 17.98 0 0 0-.363-.592 1.747 1.747 0 0 1-.287-.845c.016-.29.11-.57.27-.811.067-.113.191-.313.371-.6a182.36 182.36 0 0 0 1.37-2.23l.7-1.159.736-1.2h4.326l-3.346 5.46a1.08 1.08 0 0 0-.17.54c.012.202.082.396.203.558Z"/><path fill="#AB0058" d="M8.16 19.698a3.013 3.013 0 0 0-.787-.82 3.782 3.782 0 0 0-1.143-.54 5.42 5.42 0 0 0-1.523-.195H0v12h1.778v-4.31h3.064a4.003 4.003 0 0 0 1.98-.49 3.661 3.661 0 0 0 1.398-1.369 4.03 4.03 0 0 0 .516-2.079 4.94 4.94 0 0 0-.135-1.166 3.358 3.358 0 0 0-.44-1.03ZM6.586 23.34a1.998 1.998 0 0 1-.957.786 3.95 3.95 0 0 1-1.498.254H1.777v-4.766h2.591a3.23 3.23 0 0 1 1.44.278c.359.174.652.458.837.812.196.396.292.834.28 1.276.019.476-.099.948-.34 1.36ZM12.184 28.69c.269-.23.544-.469.835-.727.406-.36.816-.752 1.228-1.175.412-.423.804-.862 1.176-1.318.362-.441.693-.907.99-1.394.279-.453.506-.934.678-1.437.16-.462.243-.947.245-1.436a3.116 3.116 0 0 0-.27-1.327 2.868 2.868 0 0 0-.796-1.014 3.632 3.632 0 0 0-1.312-.66 6.492 6.492 0 0 0-1.803-.227 6.669 6.669 0 0 0-1.177.101c-.37.065-.732.164-1.084.296a7.31 7.31 0 0 0-.973.448l.22 1.47c.268-.18.555-.33.855-.448.326-.13.663-.232 1.007-.304.351-.073.708-.11 1.067-.11.375-.007.75.044 1.109.152.286.088.55.238.77.44.2.185.353.413.449.667.098.268.147.552.144.837a3.738 3.738 0 0 1-.288 1.394 7.42 7.42 0 0 1-.813 1.47c-.379.539-.792 1.052-1.236 1.539-.474.524-.99 1.047-1.549 1.572-.558.523-1.137 1.056-1.735 1.597l.22 1.047h7.33l.204-1.453h-5.49Z"/></svg>
